X: 36619
T: Shanahan's
R: hornpipe
M: 4/4
K: Gmajor
|:D>F|G>FG>A B>G (3Bcd|g>fg>a b>gd>B|A>^GA>B c2 c>e|(3agf g>e (3dcB c>A|
G3 A B>GB>d|g2 (3fga b>gd>B|A>e (3cBA B>G (3AGF|D>G (3GGF G2:|
|:(3ABc|d2 (3^cde d2 e>f|g>fg>a b>gd>B|d>^cd>e f>ga>b|a>g (3gfe d>c (3cBA|
G2 (3FGA B2 (3GBd|g3 a b>g (3dcB|A>ed>c B>GA<F|D2 G2 G2:|

